components/ui-node-icon/src/chart/chart.large.svg

<svg width="32" height="32" viewBox="0 0 32 32" fill="none" xmlns="http://www.w3.org/2000/svg">
  <path opacity="0.5" fill-rule="evenodd" clip-rule="evenodd" d="M22 7.71423C22 7.16195 21.5523 6.71423 21 6.71423H16L16 28.9998H22V7.71423ZM10 28.9999L10 19.0952H5C4.44772 19.0952 4 19.5429 4 20.0952V28.9999H10Z" fill="var(--tbl--colors--icons--transformation--primary)"/>
  <path d="M27 10C27.5523 10 28 10.4477 28 11L28 29L22 29C22 21.58 22 17.42 22 10L27 10Z" fill="var(--tbl--colors--icons--transformation--secondary)"/>
  <path d="M15 3C15.5523 3 16 3.44772 16 4L16 29L10 29C10 19.1848 10 13.5381 10 4.00074C10 3.44846 10.4477 3 11 3L15 3Z" fill="var(--tbl--colors--icons--transformation--primary)"/>
</svg>

<svg xmlns="http://www.w3.org/2000/svg" width="32" height="32" fill="none" viewBox="0 0 32 32">
  <path fill="var(--tbl--colors--icons--transformation--primary)" fill-rule="evenodd" d="M22 7.714a1 1 0 0 0-1-1h-5V29h6V7.714ZM10 29v-9.905H5a1 1 0 0 0-1 1V29h6Z" clip-rule="evenodd" opacity=".5"/>
  <path fill="var(--tbl--colors--icons--transformation--secondary)" d="M27 10a1 1 0 0 1 1 1v18h-6V10h5Z"/>
  <path fill="var(--tbl--colors--icons--transformation--primary)" d="M15 3a1 1 0 0 1 1 1v25h-6V4a1 1 0 0 1 1-1h4Z"/>
</svg>
